X:21167 
T:QUEEN'S SHILLING (reel), The
B:DMI.0752
Z:Nordberg/Black
R:reel % A-B-A
%Q:1/4=180
M:C|
L:1/8
K:G
D2|G2GB dBGB|dBeB dBAB|G2GB d2Bd|egdB AcBA|
G2GB dBGB|dBeB dBAB|G2GB dBGB|egdB A2||
ga|b2gb a2fa|g2eg fdB2|b2gb a2ga|gfef d2ga|
bagb agfa|gfeg dega|bgaf gfed|egdB AcBA|]
"repeat A part"

%%%

